pialara/static/img/auricular.svg

<?xml version="1.0" standalone="no"?>
<!DOCTYPE svg PUBLIC "-//W3C//DTD SVG 20010904//EN"
 "http://www.w3.org/TR/2001/REC-SVG-20010904/DTD/svg10.dtd">
<svg version="1.0" xmlns="http://www.w3.org/2000/svg"
 width="980.000000pt" height="980.000000pt" viewBox="0 0 980.000000 980.000000"
 preserveAspectRatio="xMidYMid meet">

<g transform="translate(0.000000,980.000000) scale(0.100000,-0.100000)"
fill="#000000" stroke="none">
<path d="M4745 8034 c-321 -26 -630 -112 -920 -254 -494 -243 -897 -642 -1140
-1129 -52 -105 -105 -227 -105 -243 0 -4 21 -8 46 -8 40 0 45 -2 39 -17 -62
-156 -127 -442 -144 -633 -6 -63 -14 -538 -17 -1055 l-7 -940 22 -44 c32 -62
106 -132 175 -166 46 -23 77 -30 142 -33 75 -4 84 -7 84 -24 0 -11 13 -33 29
-49 l29 -29 150 0 150 0 26 31 26 31 0 853 0 854 -24 28 -24 28 -157 0 -157 0
-24 -28 c-13 -15 -24 -37 -24 -48 0 -16 -7 -19 -50 -19 l-50 0 0 183 c0 429
40 686 150 970 l41 107 53 0 c51 0 53 1 70 38 36 76 113 200 182 292 521 697
1419 980 2249 709 441 -145 826 -449 1078 -851 30 -48 65 -109 78 -137 l24
-51 52 0 51 0 30 -72 c117 -283 162 -554 162 -979 l0 -209 -50 0 c-43 0 -50 3
-50 19 0 11 -11 33 -24 48 -24 28 -25 28 -161 31 -92 3 -147 0 -166 -9 -62
-25 -59 27 -59 -907 l0 -854 29 -29 29 -29 141 0 c81 0 150 5 164 11 24 11 47
47 47 73 0 10 23 15 84 18 64 3 96 10 138 31 78 38 139 96 176 165 l32 60 -4
564 c-3 310 -9 766 -14 1013 -8 394 -12 465 -31 570 -26 147 -60 282 -100 397
l-29 87 48 3 49 3 -53 121 c-351 804 -1077 1356 -1956 1489 -102 15 -435 27
-535 19z"/>
<path d="M2371 4854 c-17 -14 -34 -39 -38 -55 -5 -16 -6 -220 -3 -454 l5 -425
25 -24 c14 -14 42 -28 63 -31 l37 -7 0 511 0 511 -29 0 c-17 0 -42 -11 -60
-26z"/>
<path d="M7402 4373 l3 -508 34 2 c23 1 44 11 65 32 l31 31 3 418 c2 286 0
429 -8 455 -13 43 -58 77 -103 77 l-27 0 2 -507z"/>
</g>
</svg>

<?xml version="1.0" encoding="UTF-8" standalone="no" ?>
<!DOCTYPE svg PUBLIC "-//W3C//DTD SVG 1.1//EN" "http://www.w3.org/Graphics/SVG/1.1/DTD/svg11.dtd">
<svg xmlns="http://www.w3.org/2000/svg" xmlns:xlink="http://www.w3.org/1999/xlink" version="1.1" width="1080" height="1080" viewBox="0 0 1080 1080" xml:space="preserve">
<g transform="matrix(1 0 0 1 540 540)" id="e1e10c61-b699-4128-b188-77e1d542bf74"  >
<rect style="stroke: none; stroke-width: 1; stroke-dasharray: none; stroke-linecap: butt; stroke-dashoffset: 0; stroke-linejoin: miter; stroke-miterlimit: 4; fill: rgb(255,255,255); fill-rule: nonzero; opacity: 1; visibility: hidden;" vector-effect="non-scaling-stroke"  x="-540" y="-540" rx="0" ry="0" width="1080" height="1080" />
</g>
<g transform="matrix(1 0 0 1 540 540)" id="551fb03a-60bb-449f-afb4-94a1ba0194d4"  >
</g>
<g transform="matrix(1 0 0 1 540 521.76)"  >
<g style="" vector-effect="non-scaling-stroke"   >
		<g transform="matrix(1 0 0 1 0 0)"  >
<rect style="stroke: none; stroke-width: 1; stroke-dasharray: none; stroke-linecap: butt; stroke-dashoffset: 0; stroke-linejoin: miter; stroke-miterlimit: 4; fill: rgb(255,255,255); fill-rule: nonzero; opacity: 1; visibility: hidden;" vector-effect="non-scaling-stroke"  x="-540" y="-540" rx="0" ry="0" width="1080" height="1080" />
</g>
		<g transform="matrix(0.13 0 0 -0.13 0 0)"  >
<path style="stroke: none; stroke-width: 1; stroke-dasharray: none; stroke-linecap: butt; stroke-dashoffset: 0; stroke-linejoin: miter; stroke-miterlimit: 4; fill: rgb(0,0,0); fill-rule: nonzero; opacity: 1;" vector-effect="non-scaling-stroke"  transform=" translate(-4933.5, -5723.28)" d="M 4745 8034 C 4424 8008 4115 7922 3825 7780 C 3331 7537 2928 7138 2685 6651 C 2633 6546 2580 6424 2580 6408 C 2580 6404 2601 6400 2626 6400 C 2666 6400 2671 6398 2665 6383 C 2603 6227 2538 5941 2521 5750 C 2515 5687 2507 5212 2504 4695 L 2497 3755 L 2519 3711 C 2551 3649 2625 3579 2694 3545 C 2740 3522 2771 3515 2836 3512 C 2911 3508 2920 3505 2920 3488 C 2920 3477 2933 3455 2949 3439 L 2978 3410 L 3128 3410 L 3278 3410 L 3304 3441 L 3330 3472 L 3330 4325 L 3330 5179 L 3306 5207 L 3282 5235 L 3125 5235 L 2968 5235 L 2944 5207 C 2931 5192 2920 5170 2920 5159 C 2920 5143 2913 5140 2870 5140 L 2820 5140 L 2820 5323 C 2820 5752 2860 6009 2970 6293 L 3011 6400 L 3064 6400 C 3115 6400 3117 6401 3134 6438 C 3170 6514 3247 6638 3316 6730 C 3837 7427 4735 7710 5565 7439 C 6006 7294 6391 6990 6643 6588 C 6673 6540 6708 6479 6721 6451 L 6745 6400 L 6797 6400 L 6848 6400 L 6878 6328 C 6995 6045 7040 5774 7040 5349 L 7040 5140 L 6990 5140 C 6947 5140 6940 5143 6940 5159 C 6940 5170 6929 5192 6916 5207 C 6892 5235 6891 5235 6755 5238 C 6663 5241 6608 5238 6589 5229 C 6527 5204 6530 5256 6530 4322 L 6530 3468 L 6559 3439 L 6588 3410 L 6729 3410 C 6810 3410 6879 3415 6893 3421 C 6917 3432 6940 3468 6940 3494 C 6940 3504 6963 3509 7024 3512 C 7088 3515 7120 3522 7162 3543 C 7240 3581 7301 3639 7338 3708 L 7370 3768 L 7366 4332 C 7363 4642 7357 5098 7352 5345 C 7344 5739 7340 5810 7321 5915 C 7295 6062 7261 6197 7221 6312 L 7192 6399 L 7240 6402 L 7289 6405 L 7236 6526 C 6885 7330 6159 7882 5280 8015 C 5178 8030 4845 8042 4745 8034 z" stroke-linecap="round" />
</g>
		<g transform="matrix(0.13 0 0 -0.13 -338.58 180.57)"  >
<path style="stroke: none; stroke-width: 1; stroke-dasharray: none; stroke-linecap: butt; stroke-dashoffset: 0; stroke-linejoin: miter; stroke-miterlimit: 4; fill: rgb(0,0,0); fill-rule: nonzero; opacity: 1;" vector-effect="non-scaling-stroke"  transform=" translate(-2394.16, -4369)" d="M 2371 4854 C 2354 4840 2337 4815 2333 4799 C 2328 4783 2327 4579 2330 4345 L 2335 3920 L 2360 3896 C 2374 3882 2402 3868 2423 3865 L 2460 3858 L 2460 4369 L 2460 4880 L 2431 4880 C 2414 4880 2389 4869 2371 4854 z" stroke-linecap="round" />
</g>
		<g transform="matrix(0.13 0 0 -0.13 338.11 180.1)"  >
<path style="stroke: none; stroke-width: 1; stroke-dasharray: none; stroke-linecap: butt; stroke-dashoffset: 0; stroke-linejoin: miter; stroke-miterlimit: 4; fill: rgb(0,0,0); fill-rule: nonzero; opacity: 1;" vector-effect="non-scaling-stroke"  transform=" translate(-7469.36, -4372.5)" d="M 7402 4373 L 7405 3865 L 7439 3867 C 7462 3868 7483 3878 7504 3899 L 7535 3930 L 7538 4348 C 7540 4634 7538 4777 7530 4803 C 7517 4846 7472 4880 7427 4880 L 7400 4880 L 7402 4373 z" stroke-linecap="round" />
</g>
</g>
</g>
</svg>
